X:9989
T:Lu da Zeit-Landla
B:"Alt-Egerlnder Tnze", E. Baumann
Z:abc transcription Simon Wascher
N:please mail errors to simon.wascher@chello.at
M:3/4
L:1/4
K:G
dd/c/B|cc/B/A|cc/B/A|dd/c/B|
dd/c/B|cc/B/A|cc/B/A|GGz|
d/g/d/B/G|AA/c/e|c/e/c/A/F|G/B/dd|
d/g/d/B/G|AA/c/e|dFF|GGz:|
dd/c/B|ee/d/c|Ad>c|cB/A/B|
dd/c/B|ee/d/c|Ad>c|B2z|
BBB/c/|dd/c/B|B/e/e>B|dc/B/c|
AA>B|cc/B/A|A/d/d>c|cB/A/B|
BB>c|dd/c/B|B/e/e>B|dc/B/c|
AA>B|cc/B/A|Ad>F|"Fine"G2z||
dd/g/B|cc/e/F|cc/e/F|GG/B/d|
dd/g/B|cc/e/A|A/B/c/d/e/f/|gGz|]
